X: 30
T: Da Road To Houll
R: Reel
C: Tom Anderson
R: reel
M: 4/4
L: 1/8
K: Dmaj
Ac|:"D"d2 fd "D7"A2 dA|"G"GABG E2 FG|"D"A2 A2 ABcd|"Em"f2 e2 e2 "A7"Ac|"D"d2 fd "D7"A2 dA|
"G"GABG "Em"E2 FG|"D"A2 A2 "A7"ABAG|"D"F2"G"D2"D"D2:||:"A7"fg|"D"a2 af "D7"d2 dA|"G"BABd "D"A2>F2|
"G"G2 B2 ABcd|"Em"f2 e2 e2 "A7"fg|"D"a2 af "D7"d3A|"G"BABd A2 F2|"Em"G2 B2 "A7"ABAG|"D"F2 "G"D2 "D"D2:|]

